!!!OTL: Ritter und Magd Og Greven har sovet hos Jomfru'n i Nat,
!!!ARE: Nordeuropa, Daenemark
!!!YOR: 3, S. 56
!!    1891 gedruckt
!!!SCT: Q2055S
!!!YEM: Copyright 1995, estate of Helmut Schaffrath.
**kern
*ICvox
*Ivox
*M4/4
*k[f#c#g#]
*A:
{8e
=1
8a
8g#
8a
8f#
4e
8e
8e
=2
8a
8g#
8a
8f#
4.e}
{8e
=3
8a
8g#
8a
8b
4cc#
8ee
8cc#
=4
2b
8a
4r}
{8e
=5
8a
8g#
8a
8f#
4.e
8e
=6
8a
8g#
8a
8f#
4.e}
{8e
=7
8a
8g#
8a
8b
4cc#
8ee
8cc#
=8
2b
8a
4r}
==
!!!AGN: Ballade, Betrug, Schwangerschaft, Tod, Selbstmord, Herr und Magd
!! Daenische Fassung der Ballade. Dritte Zeile = Refrain auf
!!    sinnfreie Silben.
!!!ONB: ESAC (Essen Associative Code) Database: BALLADE
!!!AMT: simple quadruple
!!!AIN: vox
!!!EED: Helmut Schaffrath
!!!EEV: 1.0
*-
!!!title: @{OTL} [@{SCT}]
